X:1
T:Title
%%score 1 2
L:1/8
Q:1/4=85
M:4/4
K:Bb
V:1 treble nm="Grand Piano, Soprano"
V:2 bass nm="Choir Pad, Bass"
V:1
 [DG]2 [DG][DA] [GB]2 [Gd]2 | [Gc]2 [^FA]2 [GB]4 | [DB]4 [=Ec]2 [Ec]2 | [^Fd]8 | %4
w: By~Joe~Uthup,~2017 * * * *||||
 [GB]2 [DB][DA] [EG]2 [EB]2 | [FA]2 [CG]2 [DF]4 | [EG]2 [B,G][B,F] [CE]2 [CG]2 | %7
w: |||
 [D^F]2 [DG]2 [CA]4 | [DG]2 [DG][DA] [GB]2 [Gd]2 | [Gc]4 [CA]4 | [=B,G]8 |] %11
w: ||||
V:2
 [G,,D,]2 [G,,D,][F,,D,] [E,,C,]2 [E,,B,,]2 | [A,,C,]2 [D,,A,,]2 [G,,D,]4 | %2
 [B,,F,]4 [B,,G,]2 [B,,G,]2 | [A,,A,]8 | [G,,G,]2 [D,G,]2 [E,G,]2 [G,B,]2 | %5
 [F,A,]2 [C,A,]2 [D,A,]4 | [E,G,]2 [B,,G,]2 [C,G,]2 [E,G,]2 | [D,A,]2 [D,=E,]2 [D,^F,]4 | %8
 [G,,G,]2 [G,,D,][F,,D,] [E,,C,]2 [E,,B,,]2 | [A,,C,]4 [D,,D,]4 | [G,,G,]8 |] %11

